X: 5845
T: Calliope House
R: jig
M: 6/8
K: Dmajor
|:a3 faa|eaa def|gag f3|efe edB|
A>BA A2 F|A2 B d2 e|1 f3 fed|e3 efg:|2 f3 edB|d3- dAB||
|:dAA fAA|eAA fed|Bee e2 d|efd B3|
ABA A2 F|A2 B d2 e|1 f3 fed|e3- eAB:|2 f3 edB|d3||

